polaris-icons/icons/newicons/CircleChevronLeftMinor.svg

<svg width="20" height="20" viewBox="0 0 20 20" fill="none" xmlns="http://www.w3.org/2000/svg">
<path fill-rule="evenodd" clip-rule="evenodd" d="M11.7587 6.1989C12.0631 6.47985 12.0821 6.95434 11.8011 7.25871L9.27068 10L11.8011 12.7413C12.0821 13.0457 12.0631 13.5201 11.7587 13.8011C11.4543 14.0821 10.9799 14.0631 10.6989 13.7587L7.6989 10.5087C7.4337 10.2214 7.4337 9.77859 7.6989 9.49129L10.6989 6.24129C10.9799 5.93692 11.4543 5.91794 11.7587 6.1989Z" fill="black"/>
<path fill-rule="evenodd" clip-rule="evenodd" d="M10 16.5C13.5899 16.5 16.5 13.5899 16.5 10C16.5 6.41015 13.5899 3.5 10 3.5C6.41015 3.5 3.5 6.41015 3.5 10C3.5 13.5899 6.41015 16.5 10 16.5ZM10 18C14.4183 18 18 14.4183 18 10C18 5.58172 14.4183 2 10 2C5.58172 2 2 5.58172 2 10C2 14.4183 5.58172 18 10 18Z" fill="black"/>
</svg>

<svg viewBox="0 0 20 20" fill="none" xmlns="http://www.w3.org/2000/svg"><path fill-rule="evenodd" clip-rule="evenodd" d="M11.759 6.199a.75.75 0 0 1 .042 1.06l-2.53 2.741 2.53 2.741a.75.75 0 1 1-1.102 1.018l-3-3.25a.75.75 0 0 1 0-1.018l3-3.25a.75.75 0 0 1 1.06-.042Z" fill="#000"/><path fill-rule="evenodd" clip-rule="evenodd" d="M10 16.5a6.5 6.5 0 1 0 0-13 6.5 6.5 0 0 0 0 13Zm0 1.5a8 8 0 1 0 0-16 8 8 0 0 0 0 16Z" fill="#000"/></svg>
